image/chevron-right.svg

<?xml version="1.0" encoding="utf-8"?><!-- Uploaded to: SVG Repo, www.svgrepo.com, Generator: SVG Repo Mixer Tools -->
<svg width="800px" height="800px" viewBox="0 0 24 24" fill="none" xmlns="http://www.w3.org/2000/svg">
<path fill-rule="evenodd" clip-rule="evenodd" d="M7.20696 20.7071C6.81643 20.3166 6.81643 19.6834 7.20696 19.2929L14.4998 12L7.20696 4.70712C6.81643 4.3166 6.81643 3.68343 7.20696 3.29291L7.91406 2.5858C8.30459 2.19528 8.93775 2.19528 9.32827 2.5858L17.6818 10.9394C18.2676 11.5251 18.2676 12.4749 17.6818 13.0607L9.32828 21.4142C8.93775 21.8048 8.30459 21.8048 7.91406 21.4142L7.20696 20.7071Z" fill="#000000"/>
</svg>

<svg width="800" height="800" viewBox="0 0 24 24" fill="none" xmlns="http://www.w3.org/2000/svg"><path fill-rule="evenodd" clip-rule="evenodd" d="M7.207 20.707a1 1 0 010-1.414L14.5 12 7.207 4.707a1 1 0 010-1.414l.707-.707a1 1 0 011.414 0l8.354 8.353a1.5 1.5 0 010 2.122l-8.354 8.353a1 1 0 01-1.414 0l-.707-.707z" fill="#000"/></svg>
